symbols/web/breaking_news_alt_1/materialsymbolsoutlined/breaking_news_alt_1_wght700grad200_24px.svg

<svg xmlns="http://www.w3.org/2000/svg" height="24" width="24"><path d="M5.925 16.975h5.45v-2.25h-5.45Zm9.9 0h2.25v-2.25h-2.25Zm-9.9-3.85h5.45v-2.25h-5.45Zm9.9 0h2.25v-6.1h-2.25Zm-9.9-3.85h5.45v-2.25h-5.45Zm-1.675 12.9q-1.425 0-2.412-.987Q.85 20.2.85 18.775V5.25q0-1.425.988-2.413.987-.987 2.412-.987h15.5q1.425 0 2.413.987.987.988.987 2.413v13.525q0 1.425-.987 2.413-.988.987-2.413.987Zm0-3.4h15.5V5.25H4.25v13.525Zm0 0V5.25v13.525Z"/></svg>

<svg xmlns="http://www.w3.org/2000/svg" height="24" width="24"><path d="M5.925 16.975H11.375V14.725H5.925ZM5.925 13.125H11.375V10.875H5.925ZM5.925 9.275H11.375V7.025H5.925ZM15.825 16.975H18.075V14.725H15.825ZM15.825 13.125H18.075V7.025H15.825ZM4.25 22.175Q2.825 22.175 1.838 21.188Q0.85 20.2 0.85 18.775V5.25Q0.85 3.825 1.838 2.837Q2.825 1.85 4.25 1.85H19.75Q21.175 1.85 22.163 2.837Q23.15 3.825 23.15 5.25V18.775Q23.15 20.2 22.163 21.188Q21.175 22.175 19.75 22.175ZM4.25 18.775H19.75Q19.75 18.775 19.75 18.775Q19.75 18.775 19.75 18.775V5.25Q19.75 5.25 19.75 5.25Q19.75 5.25 19.75 5.25H4.25Q4.25 5.25 4.25 5.25Q4.25 5.25 4.25 5.25V18.775Q4.25 18.775 4.25 18.775Q4.25 18.775 4.25 18.775Z"/></svg>
